X:91
T:Fleadh at Tulla, The
R:slide
Z:id:hn-slide-91
M:6/8
L:1/8
K:D
efg fed | e2A AGA | Bcd e2d | eaa aga |
efg fed | e2A AGA | Bcd e2f |1 d3 dcd :|2 d3 d2e ||
|: f3 fef | gag g2f | e2f gfe | d2f A2G |
FAd fdf | aba afd | eaf gec |1 d3 d2e :|2 d3 dcd ||

